X: 187
T: A Fig For A Kiss
R: slip jig
M: 9/8
K: Edorian
|:G2B E2B BAG|F2A D2A AGF|G2B E2B BAG|B/c/dB AGF E2F:|
g2e g2e edB|f2d dB/c/d fed|g2e g2e edB|dBA ABd e2f|
g2e g2e edB|f2d dB/c/d fed|gfe fed ecA|B/c/dB AGF E2F||

